core/assets/icons/services.filled.svg

<svg width="24" height="24" viewBox="0 0 24 24" xmlns="http://www.w3.org/2000/svg"><g id="services=filled"><path id="Vector" d="M20.0829 10.4998L21.2849 11.2208C21.359 11.2652 21.4204 11.3281 21.463 11.4033C21.5056 11.4784 21.528 11.5634 21.528 11.6498C21.528 11.7363 21.5056 11.8212 21.463 11.8964C21.4204 11.9716 21.359 12.0344 21.2849 12.0788L11.9999 17.6498L2.71485 12.0788C2.6407 12.0344 2.57932 11.9716 2.5367 11.8964C2.49408 11.8212 2.47168 11.7363 2.47168 11.6498C2.47168 11.5634 2.49408 11.4784 2.5367 11.4033C2.57932 11.3281 2.6407 11.2652 2.71485 11.2208L3.91685 10.4998L11.9999 15.3498L20.0829 10.4998ZM20.0829 15.1998L21.2849 15.9208C21.359 15.9652 21.4204 16.0281 21.463 16.1033C21.5056 16.1784 21.528 16.2634 21.528 16.3498C21.528 16.4363 21.5056 16.5212 21.463 16.5964C21.4204 16.6716 21.359 16.7344 21.2849 16.7788L12.5149 22.0408C12.3593 22.1343 12.1813 22.1836 11.9999 22.1836C11.8184 22.1836 11.6404 22.1343 11.4849 22.0408L2.71485 16.7788C2.6407 16.7344 2.57932 16.6716 2.5367 16.5964C2.49408 16.5212 2.47168 16.4363 2.47168 16.3498C2.47168 16.2634 2.49408 16.1784 2.5367 16.1033C2.57932 16.0281 2.6407 15.9652 2.71485 15.9208L3.91685 15.1998L11.9999 20.0498L20.0829 15.1998ZM12.5139 1.30883L21.2849 6.57083C21.359 6.61522 21.4204 6.67807 21.463 6.75326C21.5056 6.82845 21.528 6.9134 21.528 6.99983C21.528 7.08625 21.5056 7.1712 21.463 7.24639C21.4204 7.32158 21.359 7.38443 21.2849 7.42883L11.9999 12.9998L2.71485 7.42883C2.6407 7.38443 2.57932 7.32158 2.5367 7.24639C2.49408 7.1712 2.47168 7.08625 2.47168 6.99983C2.47168 6.9134 2.49408 6.82845 2.5367 6.75326C2.57932 6.67807 2.6407 6.61522 2.71485 6.57083L11.4849 1.30883C11.6404 1.21538 11.8184 1.16602 11.9999 1.16602C12.1813 1.16602 12.3593 1.21538 12.5149 1.30883H12.5139Z"/></g></svg>

<svg xmlns="http://www.w3.org/2000/svg" width="24" height="24" fill="none"><path fill="#191C22" d="m20.083 10.5 1.202.72a.5.5 0 0 1 0 .859L12 17.649l-9.285-5.57a.5.5 0 0 1 0-.858l1.202-.721L12 15.35l8.083-4.85Zm0 4.7 1.202.72a.5.5 0 0 1 0 .859l-8.77 5.262a1 1 0 0 1-1.03 0l-8.77-5.262a.5.5 0 0 1 0-.858l1.202-.721L12 20.05l8.083-4.85Zm-7.57-13.891 8.772 5.262a.5.5 0 0 1 0 .858L12 12.999 2.715 7.43a.5.5 0 0 1 0-.858l8.77-5.262a1 1 0 0 1 1.03 0h-.001Z"/></svg>
